actions/128/edit-redo-rtl.svg

<?xml version="1.0" encoding="UTF-8" standalone="no"?>
<svg
   xmlns:dc="http://purl.org/dc/elements/1.1/"
   xmlns:cc="http://creativecommons.org/ns#"
   xmlns:rdf="http://www.w3.org/1999/02/22-rdf-syntax-ns#"
   xmlns:svg="http://www.w3.org/2000/svg"
   xmlns="http://www.w3.org/2000/svg"
   xmlns:xlink="http://www.w3.org/1999/xlink"
   xmlns:sodipodi="http://sodipodi.sourceforge.net/DTD/sodipodi-0.dtd"
   xmlns:inkscape="http://www.inkscape.org/namespaces/inkscape"
   version="1.1"
   width="128"
   height="128"
   id="svg3884"
   inkscape:version="0.91 r13725"
   sodipodi:docname="edit-redo-rtl.svg">
  <sodipodi:namedview
     pagecolor="#ffffff"
     bordercolor="#666666"
     borderopacity="1"
     objecttolerance="10"
     gridtolerance="10"
     guidetolerance="10"
     inkscape:pageopacity="0"
     inkscape:pageshadow="2"
     inkscape:window-width="1440"
     inkscape:window-height="844"
     id="namedview24"
     showgrid="false"
     showguides="true"
     inkscape:guide-bbox="true"
     inkscape:zoom="2.5078125"
     inkscape:cx="37.084112"
     inkscape:cy="56.024922"
     inkscape:window-x="0"
     inkscape:window-y="30"
     inkscape:window-maximized="1"
     inkscape:current-layer="svg3884" />
  <defs
     id="defs3886">
    <linearGradient
       id="linearGradient4254">
      <stop
         offset="0"
         style="stop-color:#ffffff;stop-opacity:1"
         id="stop4256" />
      <stop
         offset="0.49162757"
         style="stop-color:#ffffff;stop-opacity:0.23529412"
         id="stop4258" />
      <stop
         offset="0.68299699"
         style="stop-color:#ffffff;stop-opacity:0.15686275"
         id="stop4260" />
      <stop
         offset="1"
         style="stop-color:#ffffff;stop-opacity:0.39215687"
         id="stop4262" />
    </linearGradient>
    <linearGradient
       x1="41.853039"
       y1="15.991243"
       x2="19.346754"
       y2="15.991243"
       id="linearGradient3269"
       xlink:href="#linearGradient4254"
       gradientUnits="userSpaceOnUse"
       gradientTransform="matrix(0,-3.0804774,-3.3181932,0,127.21217,144.48761)" />
    <linearGradient
       x1="23.731871"
       y1="4.4175272"
       x2="23.731871"
       y2="38.42585"
       id="linearGradient3880"
       xlink:href="#linearGradient4220"
       gradientUnits="userSpaceOnUse"
       gradientTransform="matrix(-2.8314011,0,0,2.6285596,132.26,2.279603)" />
    <linearGradient
       id="linearGradient4220">
      <stop
         offset="0"
         style="stop-color:#cdf87e;stop-opacity:1"
         id="stop4222" />
      <stop
         offset="0.26238"
         style="stop-color:#a2e34f;stop-opacity:1"
         id="stop4224" />
      <stop
         offset="0.74553752"
         style="stop-color:#68b723;stop-opacity:1"
         id="stop4226" />
      <stop
         offset="1"
         style="stop-color:#1d7e0d;stop-opacity:1"
         id="stop4228" />
    </linearGradient>
  </defs>
  <metadata
     id="metadata3889">
    <rdf:RDF>
      <cc:Work
         rdf:about="">
        <dc:format>image/svg+xml</dc:format>
        <dc:type
           rdf:resource="http://purl.org/dc/dcmitype/StillImage" />
        <dc:title></dc:title>
      </cc:Work>
    </rdf:RDF>
  </metadata>
  <path
     inkscape:connector-curvature="0"
     style="display:block;overflow:visible;visibility:visible;fill:url(#linearGradient3880);fill-opacity:1;fill-rule:nonzero;stroke:none;stroke-width:0.96392488;stroke-linecap:butt;stroke-linejoin:round;stroke-miterlimit:7;stroke-dasharray:none;stroke-dashoffset:0;stroke-opacity:1;marker:none"
     id="path3503-0-5"
     d="M 87.903212,103.51805 C 123.85466,79.311512 103.57265,34.763309 63.499993,35.128003 l 0,-20.646051 -48.018033,35.573889 48.018033,35.396912 0,-20.646052 c 25.845255,-0.999749 41.586727,21.820858 23.109982,38.711349 z" />
  <path
     inkscape:connector-curvature="0"
     style="display:block;overflow:visible;visibility:visible;opacity:0.7;fill:none;stroke:url(#linearGradient3269);stroke-width:0.96392488;stroke-linecap:butt;stroke-linejoin:miter;stroke-miterlimit:7;stroke-dasharray:none;stroke-dashoffset:0;stroke-opacity:1;marker:none"
     id="path3505-4-9"
     d="M 91.791574,99.698872 C 119.192,74.840899 102.94241,35.985332 62.499997,35.985332 l 0,-19.462637 -45.234337,33.533146 45.234337,33.450678 0,-19.794246 c 31.84665,-0.727875 38.277093,23.305505 29.291577,35.986599 z" />
  <path
     inkscape:connector-curvature="0"
     style="color:#000000;clip-rule:nonzero;display:inline;overflow:visible;visibility:visible;opacity:0.5;isolation:auto;mix-blend-mode:normal;color-interpolation:sRGB;color-interpolation-filters:linearRGB;solid-color:#000000;solid-opacity:1;fill:none;fill-opacity:1;fill-rule:nonzero;stroke:#0f5a00;stroke-width:1;stroke-linecap:round;stroke-linejoin:miter;stroke-miterlimit:4;stroke-dasharray:none;stroke-dashoffset:0;stroke-opacity:1;marker:none;color-rendering:auto;image-rendering:auto;shape-rendering:auto;text-rendering:auto;enable-background:accumulate"
     id="path3503-0-5-9"
     d="M 87.903212,103.51805 C 123.85466,79.311515 103.57265,34.763312 63.499993,35.128006 l 0,-20.646051 -48.018033,35.573889 48.018033,35.396912 0,-20.646052 c 25.845255,-0.999749 41.586727,21.820858 23.109982,38.711346 z" />
</svg>

<svg xmlns="http://www.w3.org/2000/svg" xmlns:xlink="http://www.w3.org/1999/xlink" viewBox="0 0 128 128"><defs><linearGradient id="a"><stop offset="0" stop-color="#fff"/><stop offset=".492" stop-color="#fff" stop-opacity=".235"/><stop offset=".683" stop-color="#fff" stop-opacity=".157"/><stop offset="1" stop-color="#fff" stop-opacity=".392"/></linearGradient><linearGradient x1="41.853" y1="15.991" x2="19.347" y2="15.991" id="d" xlink:href="#a" gradientUnits="userSpaceOnUse" gradientTransform="matrix(0 -3.08048 -3.3182 0 127.212 144.488)"/><linearGradient x1="23.732" y1="4.418" x2="23.732" y2="38.426" id="c" xlink:href="#b" gradientUnits="userSpaceOnUse" gradientTransform="matrix(-2.8314 0 0 2.62856 132.26 2.28)"/><linearGradient id="b"><stop offset="0" stop-color="#cdf87e"/><stop offset=".262" stop-color="#a2e34f"/><stop offset=".746" stop-color="#68b723"/><stop offset="1" stop-color="#1d7e0d"/></linearGradient></defs><path d="M87.903 103.518c35.952-24.206 15.67-68.755-24.403-68.39V14.482L15.482 50.056 63.5 85.453V64.807c25.845-1 41.587 21.82 23.11 38.71z" display="block" overflow="visible" fill="url(#c)"/><path d="M91.792 99.7c27.4-24.86 11.15-63.715-29.292-63.715V16.523L17.266 50.056 62.5 83.506V63.713c31.847-.728 38.277 23.306 29.292 35.987z" display="block" overflow="visible" opacity=".7" fill="none" stroke="url(#d)" stroke-width=".964" stroke-miterlimit="7"/><path style="isolation:auto;mix-blend-mode:normal" d="M87.903 103.518c35.952-24.206 15.67-68.755-24.403-68.39V14.482L15.482 50.056 63.5 85.453V64.807c25.845-1 41.587 21.82 23.11 38.71z" color="#000" overflow="visible" opacity=".5" fill="none" stroke="#0f5a00" stroke-linecap="round"/></svg>
